packages/match-logos/mono/svg/zendesk.svg

<svg fill="none" height="32" viewBox="0 0 156 32" width="156" xmlns="http://www.w3.org/2000/svg"><g clip-rule="evenodd" fill="#1f304c" fill-rule="evenodd"><path d="m107.739 18.0212c-.413-2.6881-2.02-4.669-5.237-4.669-2.9876 0-5.0533 1.6976-5.6053 4.669zm-4.732 8.0173c2.526 0 4.364-1.0373 5.467-2.1216l2.711 2.9227c-1.793 1.8401-4.272 3.2094-8.131 3.2094-6.6174 0-10.8894-4.3875-10.8894-10.3302 0-5.8958 4.503-10.32842 10.2904-10.32842 6.571 0 10.291 4.99912 9.969 11.93222h-15.5273c.552 2.8776 2.5726 4.7159 6.1103 4.7159z"/><path d="m1.04932 25.8233 11.95208-12.1398h-11.67245v-3.81021h17.20925v3.88781l-11.95212 12.1416h12.11272v3.8084h-17.64948z"/><path d="m36.8491 18.0212c-.4131-2.6881-2.0205-4.669-5.2372-4.669-2.9876 0-5.0533 1.6976-5.6054 4.669zm-4.7321 8.0173c2.5257 0 4.3641-1.0373 5.4664-2.1216l2.7116 2.9227c-1.7933 1.8401-4.2721 3.2094-8.1329 3.2094-6.6156 0-10.8877-4.3875-10.8877-10.3302 0-5.8958 4.503-10.32842 10.2906-10.32842 6.5705 0 10.2905 4.99912 9.9694 11.93222h-15.5279c.5521 2.8776 2.5727 4.7159 6.1105 4.7159z"/><path d="m84.1522 19.6912c0-3.5306-2.6683-6.428-6.2945-6.428-3.5468 0-6.2963 2.818-6.2963 6.428s2.7495 6.4676 6.2963 6.4676c3.6262 0 6.2945-2.8973 6.2945-6.4676zm-16.8124.0397c0-6.3486 4.7394-10.31584 9.9586-10.31584 2.6304 0 5.1399 1.15104 6.6138 2.97674v-11.706741h4.2234v28.966541h-4.2234v-2.7386c-1.5136 1.9448-4.0231 3.1337-6.6535 3.1337-5.0586 0-9.9189-4.0051-9.9189-10.3158z"/><path d="m115.174 25.4445 3.823-1.9827c1.077 1.8239 2.83 2.8955 5.1 2.8955 2.39 0 3.626-1.2286 3.626-2.6177 0-1.5876-2.309-1.9448-4.82-2.4608-3.389-.7144-6.892-1.8257-6.892-5.9102 0-3.1373 2.986-6.03289 7.689-5.9932 3.704 0 6.455 1.4685 8.008 3.8499l-3.547 1.943c-.916-1.3891-2.469-2.2623-4.461-2.2623-2.271 0-3.426 1.1131-3.426 2.3814 0 1.4289 1.833 1.824 4.701 2.459 3.266.7162 6.971 1.786 6.971 5.9138 0 2.7368-2.388 6.428-8.048 6.3865-4.142 0-7.052-1.6652-8.724-4.6022z"/><path d="m143.414 20.8424-3.345 3.6497v5.1579h-4.223v-28.964697h4.223v18.966397l8.963-9.83949h5.14l-7.771 8.49009 7.971 11.3477h-4.781z"/><path d="m54.5783 9.41113c-5.0208 0-9.2243 3.25277-9.2243 8.64887v11.5912h4.3028v-11.0536c0-3.2528 1.8726-5.2012 5.0568-5.2012 3.1897 0 4.7845 1.9484 4.7845 5.2012v11.0536h4.3027v-11.5912c0-5.3961-4.2035-8.64887-9.2225-8.64887z"/></g></svg>

<svg width="156" height="32" viewBox="0 0 156 32" fill="none" xmlns="http://www.w3.org/2000/svg">
<path fill-rule="evenodd" clip-rule="evenodd" d="M107.739 18.0212C107.326 15.3331 105.719 13.3522 102.502 13.3522C99.5144 13.3522 97.4487 15.0498 96.8967 18.0212H107.739ZM103.007 26.0385C105.533 26.0385 107.371 25.0012 108.474 23.9169L111.185 26.8396C109.392 28.6797 106.913 30.049 103.054 30.049C96.4366 30.049 92.1646 25.6615 92.1646 19.7188C92.1646 13.823 96.6676 9.39038 102.455 9.39038C109.026 9.39038 112.746 14.3895 112.424 21.3226H96.8967C97.4487 24.2002 99.4693 26.0385 103.007 26.0385Z" fill="#1F304C"/>
<path fill-rule="evenodd" clip-rule="evenodd" d="M1.04932 25.8233L13.0014 13.6835H1.32895V9.87329H18.5382V13.7611L6.58608 25.9027H18.6988V29.7111H1.04932V25.8233Z" fill="#1F304C"/>
<path fill-rule="evenodd" clip-rule="evenodd" d="M36.8491 18.0212C36.436 15.3331 34.8286 13.3522 31.6119 13.3522C28.6243 13.3522 26.5586 15.0498 26.0065 18.0212H36.8491ZM32.117 26.0385C34.6427 26.0385 36.4811 25.0012 37.5834 23.9169L40.295 26.8396C38.5017 28.6797 36.0229 30.049 32.1621 30.049C25.5465 30.049 21.2744 25.6615 21.2744 19.7188C21.2744 13.823 25.7774 9.39038 31.565 9.39038C38.1355 9.39038 41.8555 14.3895 41.5344 21.3226H26.0065C26.5586 24.2002 28.5792 26.0385 32.117 26.0385Z" fill="#1F304C"/>
<path fill-rule="evenodd" clip-rule="evenodd" d="M84.1522 19.6912C84.1522 16.1606 81.4839 13.2632 77.8577 13.2632C74.3109 13.2632 71.5614 16.0812 71.5614 19.6912C71.5614 23.3012 74.3109 26.1588 77.8577 26.1588C81.4839 26.1588 84.1522 23.2615 84.1522 19.6912ZM67.3398 19.7309C67.3398 13.3823 72.0792 9.41506 77.2984 9.41506C79.9288 9.41506 82.4383 10.5661 83.9122 12.3918V0.685059H88.1356V29.6516H83.9122V26.913C82.3986 28.8578 79.8891 30.0467 77.2587 30.0467C72.2001 30.0467 67.3398 26.0416 67.3398 19.7309Z" fill="#1F304C"/>
<path fill-rule="evenodd" clip-rule="evenodd" d="M115.174 25.4445L118.997 23.4618C120.074 25.2857 121.827 26.3573 124.097 26.3573C126.487 26.3573 127.723 25.1287 127.723 23.7396C127.723 22.152 125.414 21.7948 122.903 21.2788C119.514 20.5644 116.011 19.4531 116.011 15.3686C116.011 12.2313 118.997 9.33571 123.7 9.3754C127.404 9.3754 130.155 10.8439 131.708 13.2253L128.161 15.1683C127.245 13.7792 125.692 12.906 123.7 12.906C121.429 12.906 120.274 14.0191 120.274 15.2874C120.274 16.7163 122.107 17.1114 124.975 17.7464C128.241 18.4626 131.946 19.5324 131.946 23.6602C131.946 26.397 129.558 30.0882 123.898 30.0467C119.756 30.0467 116.846 28.3815 115.174 25.4445Z" fill="#1F304C"/>
<path fill-rule="evenodd" clip-rule="evenodd" d="M143.414 20.8424L140.069 24.4921V29.65H135.846V0.685303H140.069V19.6517L149.032 9.81221H154.172L146.401 18.3023L154.372 29.65H149.591L143.414 20.8424Z" fill="#1F304C"/>
<path fill-rule="evenodd" clip-rule="evenodd" d="M54.5783 9.41113C49.5575 9.41113 45.354 12.6639 45.354 18.06V29.6512H49.6568V18.5976C49.6568 15.3448 51.5294 13.3964 54.7136 13.3964C57.9033 13.3964 59.4981 15.3448 59.4981 18.5976V29.6512H63.8008V18.06C63.8008 12.6639 59.5973 9.41113 54.5783 9.41113Z" fill="#1F304C"/>
</svg>
